src/lib/packages/icons/src/assets/line/video-play.svg

<svg xmlns="http://www.w3.org/2000/svg" width="24" height="24" fill="none"><path fill="currentColor" d="M17.625 2.25H6.375c-2.66 0-4.125 1.465-4.125 4.125v11.25c0 2.66 1.465 4.125 4.125 4.125h11.25c2.66 0 4.125-1.465 4.125-4.125V6.375c0-2.66-1.465-4.125-4.125-4.125Zm2.625 4.125V8.25h-4.5v-4.5h1.875c1.84 0 2.625.785 2.625 2.625ZM9.75 8.25v-4.5h4.5v4.5h-4.5Zm-3.375-4.5H8.25v4.5h-4.5V6.375c0-1.84.785-2.625 2.625-2.625Zm11.25 16.5H6.375c-1.84 0-2.625-.785-2.625-2.625V9.75h16.5v7.875c0 1.84-.785 2.625-2.625 2.625Zm-2.652-7.135-3.148-1.927a1.693 1.693 0 0 0-1.711-.033 1.667 1.667 0 0 0-.863 1.472v3.746c0 .619.322 1.169.863 1.472a1.69 1.69 0 0 0 1.711-.033l3.147-1.926c.487-.298.778-.816.778-1.386s-.291-1.088-.777-1.385Zm-.784 1.491-3.148 1.927a.184.184 0 0 1-.194.004.18.18 0 0 1-.097-.164v-3.746c0-.09.053-.14.097-.164a.19.19 0 0 1 .095-.026.19.19 0 0 1 .1.03l3.148 1.927h.001c.039.024.06.06.06.105a.121.121 0 0 1-.062.107Z"/></svg>

<svg width="24" height="24" viewBox="0 0 24 24" fill="none" xmlns="http://www.w3.org/2000/svg">
<path d="M17.625 2.25H6.375C3.715 2.25 2.25 3.715 2.25 6.375V17.625C2.25 20.285 3.715 21.75 6.375 21.75H17.625C20.285 21.75 21.75 20.285 21.75 17.625V6.375C21.75 3.715 20.285 2.25 17.625 2.25ZM20.25 6.375V8.25H15.75V3.75H17.625C19.465 3.75 20.25 4.535 20.25 6.375ZM9.75 8.25V3.75H14.25V8.25H9.75ZM6.375 3.75H8.25V8.25H3.75V6.375C3.75 4.535 4.535 3.75 6.375 3.75ZM17.625 20.25H6.375C4.535 20.25 3.75 19.465 3.75 17.625V9.75H20.25V17.625C20.25 19.465 19.465 20.25 17.625 20.25ZM14.973 13.115L11.825 11.188C11.303 10.868 10.647 10.856 10.114 11.155C9.57301 11.458 9.25098 12.008 9.25098 12.627V16.373C9.25098 16.992 9.57301 17.542 10.114 17.845C10.371 17.989 10.656 18.061 10.941 18.061C11.248 18.061 11.554 17.978 11.825 17.812L14.972 15.886C15.459 15.588 15.75 15.07 15.75 14.5C15.75 13.93 15.459 13.412 14.973 13.115ZM14.189 14.606L11.041 16.533C10.959 16.582 10.891 16.5611 10.847 16.5371C10.803 16.5121 10.75 16.464 10.75 16.373V12.627C10.75 12.537 10.803 12.4879 10.847 12.4629C10.871 12.4489 10.904 12.437 10.942 12.437C10.972 12.437 11.006 12.445 11.042 12.467L14.1899 14.394C14.1899 14.394 14.19 14.394 14.191 14.394C14.23 14.418 14.251 14.454 14.251 14.499C14.251 14.544 14.229 14.582 14.189 14.606Z" fill="currentColor"/>
</svg>
